build/img/instagram.svg

<svg width="16" height="16" viewBox="0 0 16 16"  xmlns="http://www.w3.org/2000/svg">
<path d="M11.2335 0H4.76649C2.13823 0 0 2.13823 0 4.76649V11.2335C0 13.8618 2.13823 16 4.76649 16H11.2335C13.8618 16 16 13.8618 16 11.2335V4.76649C16 2.13823 13.8617 0 11.2335 0ZM14.3904 11.2335C14.3904 12.977 12.977 14.3904 11.2335 14.3904H4.76649C3.023 14.3904 1.6096 12.977 1.6096 11.2335V4.76649C1.6096 3.02297 3.023 1.6096 4.76649 1.6096H11.2335C12.977 1.6096 14.3904 3.02297 14.3904 4.76649V11.2335Z" />
<path d="M7.99999 3.86182C5.7182 3.86182 3.86182 5.7182 3.86182 7.99996C3.86182 10.2817 5.7182 12.1381 7.99999 12.1381C10.2818 12.1381 12.1382 10.2817 12.1382 7.99996C12.1382 5.71817 10.2818 3.86182 7.99999 3.86182ZM7.99999 10.5286C6.60348 10.5286 5.47142 9.39649 5.47142 7.99999C5.47142 6.60348 6.60351 5.47142 7.99999 5.47142C9.39649 5.47142 10.5286 6.60348 10.5286 7.99999C10.5286 9.39646 9.39646 10.5286 7.99999 10.5286Z" />
<path d="M12.1462 4.88455C12.6938 4.88455 13.1378 4.4406 13.1378 3.89296C13.1378 3.34532 12.6938 2.90137 12.1462 2.90137C11.5986 2.90137 11.1546 3.34532 11.1546 3.89296C11.1546 4.4406 11.5986 4.88455 12.1462 4.88455Z" />
</svg>

<svg width="16" height="16" xmlns="http://www.w3.org/2000/svg"><path d="M11.233 0H4.766A4.772 4.772 0 000 4.766v6.467A4.772 4.772 0 004.766 16h6.467A4.772 4.772 0 0016 11.233V4.766A4.772 4.772 0 0011.233 0zm3.157 11.233a3.157 3.157 0 01-3.157 3.157H4.766a3.157 3.157 0 01-3.156-3.157V4.766A3.157 3.157 0 014.766 1.61h6.467a3.157 3.157 0 013.157 3.156v6.467z"/><path d="M8 3.862A4.143 4.143 0 003.862 8 4.143 4.143 0 008 12.138 4.143 4.143 0 0012.138 8 4.143 4.143 0 008 3.862zm0 6.667A2.529 2.529 0 118 5.47a2.529 2.529 0 010 5.058zm4.146-5.644a.992.992 0 100-1.984.992.992 0 000 1.984z"/></svg>
